X:1
T:Title
%%score { 1 | 2 }
L:1/8
M:6/4
K:Bb
V:1 treble nm="Grand Piano"
V:2 bass 
V:1
 z6 z4[Q:1/4=144] [B,D][CE] | [DF]2 [_D=E]2 [=DF]2 [Fd]2 [Fc]2 [FB]2 | %2
 [GB]2 [FA]2 [EG]2 [DF]4 [DF][DF] | G2 G2 G2 [=EG]2 [EA]2 [EB]2 | c6- c4 DE | %5
 [DF]2 [_D=E]2 [=DF]2 [Fd]2 [Fc]2 [FB]2 | [GB]2 [FA]2 [EG]2 [DF]4 [DF][DF] | %7
 [EG]2 [Ge]2 [Ge]2 d2 F2 c2 |[M:5/4] [DB]2- [DB]2- [DB]6 |[M:1/4] [Fd][Fd] | %10
[M:6/4] c2 =B2 c2 A2 _B2 c2 | d2 B2 e2 d4 [FB][FA] | G2 ^F2 G2 [=Ec]2 [EG]2 [Ed]2 | c6- c4 FF | %14
 d2 _d2 =d2 [DB]2 [Ec]2 [Fd]2 | c2 G2 c2 [Ge]2 [Gd]2 [Gc]2 | [FBf]3 [Fd] [FB]2 d2 d3 c | %17
[M:5/4] [DB]2- [DB]2- [DB]6 |] %18
V:2
 z6 z4 [B,,F,][B,,F,] | [B,,B,]2 [B,,B,]2 [B,,B,]2 [B,,B,]2 [C,A,]2 [D,B,]2 | %2
 [E,E]2 [E,E]2 [E,B,]2 [B,,B,]4 [B,,B,][B,,B,] | %3
 [E,B,E]2 [E,B,E]2 [E,B,E]2 [C,B,]2 [C,C]2 [C,G,]2 | [F,A,E]6- [F,A,E]4 [F,B,][F,C] | %5
 [B,,B,]2 [B,,B,]2 [B,,B,]2 [B,,B,]2 [C,A,]2 [D,B,]2 | %6
 [E,E]2 [E,E]2 [E,B,]2 [B,,B,]4 [B,,B,][B,,B,] | %7
 [E,B,]2 [E,B,]2 [E,B,]2 [F,B,F]2 [F,B,D]2 [F,A,E]2 |[M:5/4] [B,,B,]2- [B,,B,]2- [B,,B,]6 | %9
[M:1/4] [B,,B,][B,,B,] |[M:6/4][K:treble] [F,A,F]2 [F,_A,F]2 [F,=A,F]2 [F,CF]2 [_A,C=E]2 [=A,CF]2 | %11
 [B,F]2 [B,D]2 [B,G]2 [B,F]4[K:bass] [D,B,][D,B,] | %12
 [E,B,E]2 [E,A,E]2 [E,B,E]2 [C,B,]2 [C,B,]2 [C,B,]2 | [F,A,F]6- [F,A,F]4 [F,A,][F,A,] | %14
 [B,F]2 [B,=E]2 [B,F]2[K:bass] [B,,B,]2 [B,,B,]2 [B,,B,]2 | %15
 [E,G,E]2 [E,CE]2 [E,G,E]2 [C,C]2 [D,=B,]2 [E,C]2 | %16
 [D,B,]3 [B,,B,] [D,B,]2 [F,B,F]2 [F,B,F]3 [F,E] |[M:5/4] [B,,F,]2- [B,,F,]2- [B,,F,]6 |] %18

